brandFactory_export/2.Regular/Bicicleta_Bike_2Regular.svg

<?xml version="1.0" encoding="UTF-8"?>
<svg width="24px" height="24px" viewBox="0 0 24 24" version="1.1" xmlns="http://www.w3.org/2000/svg" xmlns:xlink="http://www.w3.org/1999/xlink">
    <title>2.Regular/Bicicleta_Bike_2Regular</title>
    <g id="Symbols" stroke="none" stroke-width="1" fill="none" fill-rule="evenodd">
        <g id="2.Regular/Bicicleta_Bike_2Regular" fill="#5CB615" fill-rule="nonzero">
            <path d="M19.1193277,19.189916 C17.0621849,19.189916 16.1042017,18.1915966 16.1042017,16.0470588 C16.1042017,14.8 16.4369748,13.9529412 17.1092437,13.4521008 L18.5310924,16.3327731 C18.6352941,16.5512605 18.8571429,16.6890756 19.0957983,16.692437 C19.1932773,16.692437 19.2941176,16.6689076 19.3882353,16.6184874 C19.7042017,16.4436975 19.8252101,16.0470588 19.6638655,15.7243697 L18.302521,12.9714286 C18.5546218,12.9277311 18.8201681,12.9042017 19.1193277,12.9042017 C21.1798319,12.9042017 22.1378151,13.902521 22.1378151,16.0504202 C22.1378151,18.1915966 21.1798319,19.189916 19.1193277,19.189916 Z M11.687395,14.2184874 C11.6436975,14.2184874 11.6067227,14.2285714 11.5630252,14.2285714 L9.18655462,9.1697479 L14.3327731,9.1697479 L11.8184874,14.2285714 C11.7747899,14.2285714 11.7344538,14.2218487 11.687395,14.2184874 Z M11.687395,15.5462185 C12.1680672,15.5462185 12.3193277,15.707563 12.3193277,16.205042 C12.3193277,16.7092437 12.1714286,16.8638655 11.687395,16.8638655 C11.2033613,16.8638655 11.0554622,16.7092437 11.0554622,16.205042 C11.0554622,15.7042017 11.210084,15.5462185 11.687395,15.5462185 Z M4.50084034,19.189916 C2.44369748,19.189916 1.48235294,18.1915966 1.48235294,16.0470588 C1.48235294,13.902521 2.44033613,12.9008403 4.50084034,12.9008403 C4.77647059,12.9008403 5.02857143,12.9210084 5.26722689,12.9579832 L3.91260504,15.7310924 C3.81176471,15.9361345 3.82184874,16.1781513 3.9394958,16.3764706 C4.05378151,16.5714286 4.25882353,16.692437 4.48067227,16.692437 L7.48235294,16.692437 C7.29747899,18.389916 6.3394958,19.189916 4.50084034,19.189916 Z M6.47058824,13.4184874 C7.04201681,13.8218487 7.37478992,14.4605042 7.4789916,15.3647059 L5.51596639,15.3647059 L6.47058824,13.4184874 Z M8.15462185,9.98319328 L10.3663866,14.6857143 C10.1647059,14.8739496 10.010084,15.1058824 9.91932773,15.3680672 L8.94117647,15.3680672 C8.79663866,13.8521008 8.18487395,12.7159664 7.14285714,12.0571429 L8.15462185,9.98319328 Z M19.1193277,11.3747899 C18.5647059,11.3747899 18.0739496,11.4588235 17.6168067,11.5831933 L16.0134454,8.34621849 L16.0134454,5.34789916 C16.4504202,5.31092437 16.9882353,5.34789916 17.2638655,5.57983193 C17.3546218,5.65714286 17.4588235,5.78487395 17.4588235,6.11092437 C17.4588235,6.47731092 17.7445378,6.77310924 18.0941176,6.77310924 C18.4537815,6.76638655 18.7361345,6.47058824 18.7294118,6.11092437 C18.7294118,5.28403361 18.3630252,4.80336134 18.0571429,4.54789916 C17.0789916,3.72773109 15.4218487,4.08739496 15.2369748,4.12773109 C14.9411765,4.20168067 14.7361345,4.47058824 14.7394958,4.77310924 L14.7394958,7.84537815 L8.56470588,7.84537815 L7.84537815,6.3092437 L8.73613445,6.3092437 C9.09579832,6.30252101 9.37815126,6.00672269 9.37142857,5.64705882 C9.37815126,5.28739496 9.09579832,4.99159664 8.73613445,4.98487395 L5.45546218,4.98487395 C5.09579832,4.99159664 4.81344538,5.28739496 4.82016807,5.64705882 C4.82016807,6.01344538 5.10588235,6.3092437 5.45546218,6.3092437 L6.42689076,6.3092437 L7.45210084,8.49411765 L5.94957983,11.5697479 C5.4789916,11.4420168 4.99159664,11.3781513 4.50420168,11.3747899 C1.65378151,11.3747899 0.0201680672,13.0789916 0.0201680672,16.0470588 C0.0201680672,19.0151261 1.65378151,20.7159664 4.50420168,20.7159664 C7.13613445,20.7159664 8.71260504,19.2504202 8.94117647,16.6890756 L9.83193277,16.6890756 C9.97310924,17.4957983 10.4773109,18.0134454 11.2605042,18.1478992 L12.0235294,19.7378151 C12.1310924,19.9630252 12.3529412,20.1042017 12.5915966,20.1042017 L13.5630252,20.1042017 C13.9226891,20.097479 14.205042,19.8016807 14.1983193,19.4453782 L14.1983193,19.4420168 C14.205042,19.0823529 13.9226891,18.7865546 13.5630252,18.7798319 L12.9815126,18.7798319 L12.605042,17.9932773 C13.2336134,17.7008403 13.5932773,17.0823529 13.5932773,16.205042 C13.5932773,15.5462185 13.3882353,15.0319328 13.0218487,14.692437 L15.3815126,9.95294118 L16.4369748,12.087395 C15.2739496,12.8504202 14.6420168,14.205042 14.6420168,16.0504202 C14.6420168,19.0184874 16.2756303,20.7226891 19.1226891,20.7226891 C21.9731092,20.7226891 23.6067227,19.0218487 23.6067227,16.0504202 C23.6033613,13.0789916 21.9697479,11.3747899 19.1193277,11.3747899 Z" id="Bicicleta_Bike_2Regular"></path>
        </g>
    </g>
</svg>

<svg width="24" height="24" viewBox="0 0 24 24" xmlns="http://www.w3.org/2000/svg"><path d="M19.12 19.19c-2.058 0-3.016-.998-3.016-3.143 0-1.247.333-2.094 1.005-2.595l1.422 2.88a.62.62 0 00.857.286.678.678 0 00.276-.894l-1.361-2.753c.252-.043.517-.067.816-.067 2.06 0 3.019.999 3.019 3.146 0 2.142-.958 3.14-3.019 3.14zm-7.433-4.972c-.043 0-.08.01-.124.01L9.187 9.17h5.146l-2.515 5.059c-.043 0-.084-.007-.13-.01zm0 1.328c.481 0 .632.162.632.659 0 .504-.148.659-.632.659s-.632-.155-.632-.659c0-.5.155-.659.632-.659zM4.501 19.19c-2.057 0-3.019-.998-3.019-3.143 0-2.144.958-3.146 3.019-3.146.275 0 .528.02.766.057l-1.354 2.773c-.101.205-.091.447.026.645a.63.63 0 00.542.316h3.001C7.297 18.39 6.34 19.19 4.501 19.19zm1.97-5.772c.571.404.904 1.043 1.008 1.947H5.516l.955-1.947zm1.684-3.435l2.211 4.703c-.201.188-.356.42-.447.682h-.978c-.144-1.516-.756-2.652-1.798-3.31l1.012-2.075zm10.964 1.392c-.554 0-1.045.084-1.502.208l-1.604-3.237V5.348c.437-.037.975 0 1.25.232.092.077.196.205.196.53a.65.65 0 00.635.663.647.647 0 00.635-.662c0-.827-.366-1.308-.672-1.563-.978-.82-2.635-.46-2.82-.42a.658.658 0 00-.498.645v3.072H8.565l-.72-1.536h.891a.647.647 0 00.635-.662.647.647 0 00-.635-.662h-3.28a.647.647 0 00-.636.662.65.65 0 00.635.662h.972l1.025 2.185L5.95 11.57a5.673 5.673 0 00-1.446-.195c-2.85 0-4.484 1.704-4.484 4.672s1.634 4.669 4.484 4.669c2.632 0 4.209-1.466 4.437-4.027h.89c.142.807.646 1.324 1.43 1.459l.763 1.59c.107.225.329.366.568.366h.971a.646.646 0 00.635-.659v-.003a.647.647 0 00-.635-.662h-.581l-.377-.787c.629-.292.988-.91.988-1.788 0-.659-.205-1.173-.571-1.513l2.36-4.74 1.055 2.135c-1.163.763-1.795 2.118-1.795 3.963 0 2.968 1.634 4.673 4.48 4.673 2.851 0 4.485-1.701 4.485-4.673-.004-2.971-1.637-4.675-4.488-4.675z" fill="#5CB615" fill-rule="nonzero"/></svg>
